X:1
T:3.
%%score { ( 1 3 ) | ( 2 4 ) }
L:1/8
Q:1/4=63
M:4/4
K:Gb
V:1 treble nm="Piano" snm="Pno."
V:3 treble 
V:2 bass 
V:4 bass 
V:1
"^Andante cantabile M.M." z2!p!!<(! (g2 f2 B2 | c2 e2 d2 G2 | A2!<)! c2!>(! B2 E2 | %3
 F2 G2 B2 A2)!>)! | z4 d2- (3:2:2d2 G |!<(! (3G.A.B c2-!<)!!>(! (3cBA (3D!>)!GF | %6
 (3E"_cresc."FG A2- (3AGF (3GAB |!mf! (3d"_dim."DE (3Dfe (3GdE (3FAB | %8
 G2!p! [CGc]2 [B,GB]2 [E,B,DE]2 | [F,CDF]2 [G,DG]2 [B,FB]2 [CFA]2 | [B,G]2 z2 d2- (3:2:2d2 G | %11
 (3GAB c2- (3cBA (3DGF | (3E"_cresc."FG A2- (3AGF (3GAB |!mf! (3d"_dim."DE (3Dfe (3daB (3=cef | %14
 d2!p! [Gdg]2 [Fdf]2 [B,FAB]2 | [=CGA=c]2!<(! [DAd]2 [Fcf]2 [Gce]2 | %16
 [FBd]2 z2!<)!!mf! (3f=ef (3agB |!<(! (3B=ce- e4!<)!!p! ([Gce]2 | %18
 [FBd]2!<(! [EA=c]2 [DFB]2 [CFA]2!<)! |!p! [B,EG]2) z2!mf! (3(B=AB (3dcE | %20
!<(! (3EFA- A4)!<)!!p! [CFA]2 | [B,EG]2 [A,DF]2[K:bass] [G,B,E]2 [G,=CF]2 | %22
 G,2 F,2[K:treble] [CFA]2 [DFB]2 | [B,G]2 z2 (3:2:2de/(3d/e/d/ (3=cdG | %24
 (5:4:5G/F/G/A/B/ c2- (3:2:2cB/(3A/B/A/ (5:4:5D/B/A/G/F/ | (3E/.F/.=D/(3.E/.F/.G/ A2- (3AGF (3GAB | %26
"_rubato" (3dDE (3Dfe (3GdE"^rit."[Q:1/4=63] (3F[Q:1/4=62]"^.7"A[Q:1/4=62]"^.5"B | %27
[Q:1/4=62]"^.2" [B,G]2[Q:1/4=61]"^.4"!p! ([Fd]2[Q:1/4=60]"^.5" [Be]2[Q:1/4=59]"^.7" [dg]2 | %28
[Q:1/4=58]"^.9" [fb]2[Q:1/4=58]"^.1" [dg]2[Q:1/4=57]"^.3" [ca]2[Q:1/4=56]"^.5" d2- | %29
[Q:1/4=55]"^.6" [Bd]2)[Q:1/4=54]"^.8" ([Fd]2[Q:1/4=54] [Be]2[Q:1/4=53]"^.2" [dg]2 | %30
[Q:1/4=52]"^.4" [fb]2[Q:1/4=51]"^.5" [dg]2[Q:1/4=50]"^.7" [ca]2[Q:1/4=49]"^.9" [Fd-]2 | %31
[Q:1/4=49]"^.1" [Bd]2[Q:1/4=48]"^.3" d4)[Q:1/4=47][Q:1/4=46]"^.6" d2- | %32
[Q:1/4=45]"^.8" d2[Q:1/4=45] (d2[Q:1/4=44]"^.2" G4- |[Q:1/4=42]"^.5" G4[Q:1/4=40]"^.9" [CDFA]4 | %34
[Q:1/4=39]"^.3" !fermata![B,DGB]8) |] %35
V:2
 z2[K:treble] (B2 A2 D2 | E2 G2 F2 B,2 | C2 E2 D2 G,2 | A,2 B,2 D2 C2) | %4
 z2[K:bass] ([B,G]2 [A,F]2 [D,B,]2 | [E,C]2 [G,E]2 [F,D]2[K:bass] [B,,G,]2 | %6
 [C,A,]2 [E,C]2 [D,B,]2 [G,,E,]2 | [A,,F,]2 [B,,G,]2 [D,B,]2 [D,,D,]2 | %8
 [E,,E,]2) ([E,,E,]2 [D,,D,]2 [G,,,G,,]2 | [A,,,A,,]2 [B,,,B,,]2 [D,,D,]2 [D,,,D,,]2 | %10
 [G,,,G,,]2) ([B,G]2 [A,F]2 [D,B,]2 | [E,C]2 [G,E]2 [F,D]2[K:bass] [B,,G,]2 | %12
 [C,A,]2 [E,C]2 [D,B,]2 [G,E]2 | [A,F]2 [B,G]2 [A,F]2 [A,,A,]2 | %14
 [B,,B,]2) ([B,,B,]2 [A,,A,]2 [D,,D,]2 | [E,,E,]2 [F,,F,]2 [A,,A,]2 [=A,,=A,]2 | %16
 [B,,B,]2)[K:treble] ([DB]2!p! [=C=A]2 [F,D]2 | [G,E]2 [B,G]2 [__B,F]2)[K:bass] ([=A,,,=A,,]2 | %18
 [B,,,B,,]2 [=C,,=C,]2 [D,,D,]2 [=D,,=D,]2 | [E,,E,]2) ([G,E]2 [F,=D]2 [B,,G,]2 | %20
 [C,A,]2 [E,C]2 [=D,B,]2) ([=D,,,=D,,]2 | [E,,,E,,]2 [F,,,F,,]2 [G,,,G,,]2 [A,,,A,,]2 | %22
 [D,,D,]4 [D,,,D,,]4 | [G,,,G,,]2) [B,G]2 [A,F]2 [D,B,]2 | [E,C]2 [G,E]2 [F,D]2[K:bass] [B,,G,]2 | %25
 [C,A,]2 [E,C]2 [D,B,]2 [G,,E,]2 | [A,,F,]2 [B,,G,]2 [D,B,]2 [D,,D,-]2 | %27
 D,2 ([D,B,]2[K:treble] [G,E]2 [B,G]2 | [DB]2 B2 [A,A]2 [D-B]2 | %29
 [G,DG]2)[K:bass] [D,B,]2[K:treble] [G,E]2 [B,G]2 | [DB]2 B2 [A,A]2 [D-B]2 | %31
 [G,DG]2[K:bass] B,4 B,2- | B,2 C2 z4 | z4 !arpeggio![D,,D,]4 | !arpeggio!!fermata![G,,,G,,D,]8 |] %35
V:3
 x8 | x8 | x8 | x8 | x8 | x8 | x8 | x6 C2- | C2 x6 | x8 | x8 | x8 | x8 | x6 G2- | G2 x6 | x8 | x8 | %17
 x8 | x8 | x8 | x8 | x4[K:bass] x4 | [CD]4[K:treble] x4 | x8 | x8 | x8 | x6 C2 | x8 | x6 F2 | x8 | %30
 x8 | x2 (F2"^.5" G2) (F2 | G2) [EG-]2 x4 | x8 | x8 |] %35
V:4
 x2[K:treble] x6 | x8 | x8 | x8 | x2[K:bass] x6 | x6[K:bass] x2 | x8 | x8 | x8 | x8 | x8 | %11
 x6[K:bass] x2 | x8 | x8 | x8 | x8 | x2[K:treble] x6 | x6[K:bass] x2 | x8 | x8 | x8 | x8 | x8 | %23
 x8 | x6[K:bass] x2 | x8 | x8 | G,,2 x2[K:treble] x4 | x2 E4 x2 | x2[K:bass] x2[K:treble] x4 | %30
 x2 E4 x2 | x2[K:bass] (D,2 E,2) (D,2 | E,2) [A,,E,]2 x4 | x8 | x8 |] %35

